icons/24x24_user_remove_outline.svg

<svg xmlns="http://www.w3.org/2000/svg" width="24" height="24" viewBox="0 0 24 24">
  <path fill-rule="evenodd" d="M13.9981484,15.5294449 C12.9361735,14.5787314 11.5345409,14 10,14 C6.691,14 4,16.691 4,20 L2,20 C2,15.589 5.589,12 10,12 C12.2519731,12 14.2896946,12.9354611 15.7449612,14.4381801 C15.0990442,14.7003267 14.5091303,15.0717246 13.9981484,15.5294449 L13.9981484,15.5294449 Z M2,20 L4,20 L4,21 C4,21.5522847 3.55228475,22 3,22 C2.44771525,22 2,21.5522847 2,21 L2,20 Z M10,10 C7.790861,10 6,8.209139 6,6 C6,3.790861 7.790861,2 10,2 C12.209139,2 14,3.790861 14,6 C14,8.209139 12.209139,10 10,10 Z M10,8 C11.1045695,8 12,7.1045695 12,6 C12,4.8954305 11.1045695,4 10,4 C8.8954305,4 8,4.8954305 8,6 C8,7.1045695 8.8954305,8 10,8 Z M15,19 L21,19 C21.5522847,19 22,19.4477153 22,20 C22,20.5522847 21.5522847,21 21,21 L15,21 C14.4477153,21 14,20.5522847 14,20 C14,19.4477153 14.4477153,19 15,19 Z"/>
</svg>

<svg width="24" height="24" fill="none" xmlns="http://www.w3.org/2000/svg"><path fill-rule="evenodd" clip-rule="evenodd" d="M13.998 15.53A5.976 5.976 0 0 0 10 14c-3.309 0-6 2.691-6 6H2c0-4.411 3.589-8 8-8 2.252 0 4.29.935 5.745 2.438a6 6 0 0 0-1.747 1.091ZM2 20h2v1a1 1 0 1 1-2 0v-1Zm8-10a4 4 0 1 1 0-8 4 4 0 0 1 0 8Zm0-2a2 2 0 1 0 0-4 2 2 0 0 0 0 4Zm5 11h6a1 1 0 1 1 0 2h-6a1 1 0 1 1 0-2Z" fill="#000"/></svg>
